Material/SVG/joerg.svg

<?xml version="1.0" encoding="UTF-8"?>
<svg id="Layout" xmlns="http://www.w3.org/2000/svg" viewBox="0 0 48.93 18.9">
  <defs>
    <style>
      .cls-1 {
        fill: #f42c04;
      }
    </style>
  </defs>
  <path class="cls-1" d="m6.05,14.49l-.58.45c-.34.27-.7.36-1.3.36H.85l-.58-3.02.22-.04c.72,2.05,1.53,2.81,2.74,2.81h.65c1.04,0,1.4-.36,1.4-1.37V4.12c0-.85-.25-1.21-.86-1.21v-.22h3.03v.22c-.61,0-.86.36-.86,1.21v8.93c0,.79-.11,1.12-.52,1.44Z"/>
  <path class="cls-1" d="m20.94,8.94c0,3.87-2.88,6.61-6.21,6.61s-6.21-2.74-6.21-6.61,2.88-6.5,6.21-6.5,6.21,2.63,6.21,6.5Zm-10.89.05c0,3.28,1.8,6.3,4.68,6.3s4.68-3.02,4.68-6.3-1.8-6.3-4.68-6.3-4.68,3.04-4.68,6.3Zm1.91-7.87c0,.43.36.79.79.79s.77-.36.77-.79-.36-.77-.77-.77-.79.36-.79.77Zm3.96,0c0,.43.36.79.79.79s.77-.36.77-.79-.36-.77-.77-.77-.79.36-.79.77Z"/>
  <path class="cls-1" d="m22.91,13.88V4.95c0-.79.11-1.12.52-1.44l.58-.45c.34-.27.7-.36,1.3-.36h1.87c3.17,0,4.74,1.67,4.74,3.56s-1.57,3.82-5.1,3.82h-.11l3.31,3.42c1.13,1.17,1.66,1.57,2.52,1.58v.22h-3.04l-5.29-7.33v5.91c0,.85.25,1.21.86,1.21v.22h-3.03v-.22c.61,0,.87-.36.87-1.21Zm3.55-4.05h.05c3.04,0,3.89-1.78,3.89-3.55s-1.1-3.33-3.22-3.33h-1.03c-1.4,0-1.94.54-1.94,1.91v2.65l2.25,2.32Z"/>
  <path class="cls-1" d="m39.68,2.44c1.01,0,2.36.14,3.1.25l.72,2.16-.2.04c-.65-1.19-1.94-2.2-3.98-2.2-2.88,0-4.68,3.04-4.68,6.25,0,4.36,2.56,6.3,4.9,6.3,1.95,0,3.73-1.35,3.73-3.8s-.67-2.93-2.74-3.11l-1.73-.14v-.25h5.73v4.41c-1.01,2.12-3.01,3.21-5.08,3.21-3.1,0-6.34-2.34-6.34-6.61,0-3.87,2.88-6.5,6.57-6.5Z"/>
</svg>

<?xml version="1.0" encoding="utf-8"?>
<svg id="Layout" viewBox="0 0.319 103 15.251" xmlns="http://www.w3.org/2000/svg">
  <defs>
    <style>
      .cls-1 {
        fill: #f42c04;
      }
    </style>
  </defs>
  <g transform="matrix(1, 0, 0, 1, 29.1, 0)">
    <path class="cls-1" d="M 6.05 14.49 L 5.47 14.94 C 5.13 15.21 4.77 15.3 4.17 15.3 L 0.85 15.3 L 0.27 12.28 L 0.49 12.24 C 1.21 14.29 2.02 15.05 3.23 15.05 L 3.88 15.05 C 4.92 15.05 5.28 14.69 5.28 13.68 L 5.28 4.12 C 5.28 3.27 5.03 2.91 4.42 2.91 L 4.42 2.69 L 7.45 2.69 L 7.45 2.91 C 6.84 2.91 6.59 3.27 6.59 4.12 L 6.59 13.05 C 6.59 13.84 6.48 14.17 6.07 14.49 L 6.05 14.49 Z"/>
    <path class="cls-1" d="M 20.94 8.94 C 20.94 12.81 18.06 15.55 14.73 15.55 C 11.4 15.55 8.52 12.81 8.52 8.94 C 8.52 5.07 11.4 2.44 14.73 2.44 C 18.06 2.44 20.94 5.07 20.94 8.94 L 20.94 8.94 Z M 10.05 8.99 C 10.05 12.27 11.85 15.29 14.73 15.29 C 17.61 15.29 19.41 12.27 19.41 8.99 C 19.41 5.71 17.61 2.69 14.73 2.69 C 11.85 2.69 10.05 5.73 10.05 8.99 L 10.05 8.99 Z M 11.96 1.12 C 11.96 1.55 12.32 1.91 12.75 1.91 C 13.18 1.91 13.52 1.55 13.52 1.12 C 13.52 0.69 13.16 0.35 12.75 0.35 C 12.34 0.35 11.96 0.71 11.96 1.12 Z M 15.92 1.12 C 15.92 1.55 16.28 1.91 16.71 1.91 C 17.14 1.91 17.48 1.55 17.48 1.12 C 17.48 0.69 17.12 0.35 16.71 0.35 C 16.3 0.35 15.92 0.71 15.92 1.12 Z"/>
    <path class="cls-1" d="M 22.91 13.88 L 22.91 4.95 C 22.91 4.16 23.02 3.83 23.43 3.51 L 24.01 3.06 C 24.35 2.79 24.71 2.7 25.31 2.7 L 27.18 2.7 C 30.35 2.7 31.92 4.37 31.92 6.26 C 31.92 8.15 30.35 10.08 26.82 10.08 L 26.71 10.08 L 30.02 13.5 C 31.15 14.67 31.68 15.07 32.54 15.08 L 32.54 15.3 L 29.5 15.3 L 24.21 7.97 L 24.21 13.88 C 24.21 14.73 24.46 15.09 25.07 15.09 L 25.07 15.31 L 22.04 15.31 L 22.04 15.09 C 22.65 15.09 22.91 14.73 22.91 13.88 L 22.91 13.88 Z M 26.46 9.83 L 26.51 9.83 C 29.55 9.83 30.4 8.05 30.4 6.28 C 30.4 4.51 29.3 2.95 27.18 2.95 L 26.15 2.95 C 24.75 2.95 24.21 3.49 24.21 4.86 L 24.21 7.51 L 26.46 9.83 Z"/>
    <path class="cls-1" d="M 39.68 2.44 C 40.69 2.44 42.04 2.58 42.78 2.69 L 43.5 4.85 L 43.3 4.89 C 42.65 3.7 41.36 2.69 39.32 2.69 C 36.44 2.69 34.64 5.73 34.64 8.94 C 34.64 13.3 37.2 15.24 39.54 15.24 C 41.49 15.24 43.27 13.89 43.27 11.44 C 43.27 8.99 42.6 8.51 40.53 8.33 L 38.8 8.19 L 38.8 7.94 L 44.53 7.94 L 44.53 12.35 C 43.52 14.47 41.52 15.56 39.45 15.56 C 36.35 15.56 33.11 13.22 33.11 8.95 C 33.11 5.08 35.99 2.45 39.68 2.45 L 39.68 2.44 Z"/>
  </g>
</svg>
